svgs/solid/hat-winter.svg

<svg xmlns="http://www.w3.org/2000/svg" viewBox="0 0 512 512"><!--! Font Awesome Pro 6.0.0 by @fontawesome - https://fontawesome.com License - https://fontawesome.com/license (Commercial License) Copyright 2022 Fonticons, Inc. --><path d="M195.3 105.2c-5.5 10-4.462 22.79 4.163 31.41C204.7 141.8 211.4 144.4 218.3 144.4c4.5 0 8.625-1.5 12.5-3.625C234.1 151.8 243.9 160 256 160c12.12 0 21.88-8.25 25.25-19.25c4 2.125 8.125 3.625 12.5 3.625c6.75 0 13.54-2.662 18.91-7.788c8.625-8.625 9.587-21.34 4.087-31.34C327.8 101.9 336 92.12 336 80s-8.25-21.88-19.25-25.25c5.5-10 4.487-22.76-4.138-31.39c-8.625-8.625-21.36-9.612-31.36-4.113C277.9 8.25 268.1 0 256 0C243.9 0 234.1 8.25 230.8 19.25c-10-5.5-22.76-4.494-31.38 4.131c-8.625 8.625-9.619 21.37-4.119 31.37C184.3 58.12 176 67.88 176 80S184.3 101.9 195.3 105.2zM128 270.1l64 32l64-32l64 32l64-32l64 32l7.25-3.625C435.5 248.2 400 193.6 336.2 158c-.4999 .3747-.6875 .7497-1.062 1.25c-10.62 10.5-24.56 16.63-39.56 17.13C285.1 186.2 271.1 192.1 256 192.1c-15.25 0-29.25-5.875-39.62-15.75C201.5 175.9 187.5 169.9 176.8 159.2c-.375-.5-.5-.875-1-1.25C111.9 193.6 76.38 248.4 56.75 298.5L64 302.1L128 270.1zM496 448h-480C7.25 448 0 455.2 0 464v32C0 504.8 7.25 512 16 512h480c8.75 0 16-7.25 16-16v-32C512 455.2 504.8 448 496 448zM465.8 329.1L448 337.9l-64-32l-64 32l-64-32l-64 32l-64-32l-64 32l-17.75-8.75C32.25 377.8 32 416 32 416h448C480 416 479.8 377.8 465.8 329.1z"/></svg>

<svg xmlns="http://www.w3.org/2000/svg" viewBox="0 0 512 512"><!-- Font Awesome Pro 5.15.3 by @fontawesome - https://fontawesome.com License - https://fontawesome.com/license (Commercial License) --><path d="M195.2 105.2c-5.5 10.1-4.4 22.8 4.2 31.4 5.2 5.2 12 7.8 18.9 7.8 4.4 0 8.6-1.5 12.5-3.6 3.3 11 13.1 19.2 25.2 19.2s21.9-8.2 25.2-19.2c4 2.1 8.2 3.6 12.5 3.6 6.8 0 13.6-2.6 18.9-7.8 8.6-8.6 9.7-21.3 4.2-31.4 11-3.3 19.2-13.1 19.2-25.2s-8.2-21.9-19.2-25.2c5.5-10.1 4.4-22.8-4.2-31.4s-21.3-9.7-31.4-4.2C277.9 8.2 268.1 0 256 0s-21.9 8.2-25.2 19.2c-10.1-5.5-22.8-4.4-31.4 4.2s-9.7 21.3-4.2 31.4C184.2 58.1 176 67.9 176 80s8.2 21.9 19.2 25.2zM128 270.1l64 32 64-32 64 32 64-32 64 32 7.2-3.6c-19.7-50.2-55.2-104.9-119-140.5-.4.4-.6.8-1 1.2-10.6 10.6-24.6 16.7-39.6 17.2-10.5 9.9-24.5 15.7-39.6 15.7-15.2 0-29.2-5.8-39.6-15.7-14.9-.5-28.9-6.5-39.6-17.2-.4-.4-.6-.8-1-1.2-63.9 35.6-99.4 90.4-119 140.5l7.2 3.6 64-32zM496 448H16c-8.8 0-16 7.2-16 16v32c0 8.8 7.2 16 16 16h480c8.8 0 16-7.2 16-16v-32c0-8.8-7.2-16-16-16zm-30.3-118.9l-17.7 8.8-64-32-64 32-64-32-64 32-64-32-64 32-17.7-8.8C32.2 377.8 32 416 32 416h448s-.2-38.2-14.3-86.9z"/></svg>
